X: 21700
T: Kilty Town
R: reel
M: 4/4
K: Gmajor
|:BG G2 d2cA|(3Bcd cA BGG2|AD D2 cD D2|BD D2 cBA2|
BGG2 d2cA|BdcA BG G2|FGAd fdeg|1 fdcA G3A:|2 fdcA G2Bd||
|:g3a gB B2|eBgB eB B2|dega b2ag|ea a2 agef|
g2bg f2af|egfd edBG|c2ec B2dB|AGAB cdef:|
|:g2dc BGG2|FGAB cBcA|GB B2 BABc|d2AG FDEF|
G2BG F2AF|EGFD edcB|c2 ec B2dB|FGAc BGG2:|

